images/11949199.svg

<?xml version="1.0" encoding="UTF-8"?>
<svg xmlns="http://www.w3.org/2000/svg" xmlns:xlink="http://www.w3.org/1999/xlink" width="300pt" height="300pt" viewBox="0 0 300 300" version="1.1">
<defs>
<g>
<symbol overflow="visible" id="glyph0-0">
<path style="stroke:none;" d="M 0.453125 1.59375 L 0.453125 -6.34375 L 4.953125 -6.34375 L 4.953125 1.59375 Z M 0.953125 1.09375 L 4.453125 1.09375 L 4.453125 -5.84375 L 0.953125 -5.84375 Z M 0.953125 1.09375 "/>
</symbol>
<symbol overflow="visible" id="glyph0-1">
<path style="stroke:none;" d="M 0.890625 -6.5625 L 2.078125 -6.5625 L 4.984375 -1.078125 L 4.984375 -6.5625 L 5.84375 -6.5625 L 5.84375 0 L 4.65625 0 L 1.75 -5.484375 L 1.75 0 L 0.890625 0 Z M 0.890625 -6.5625 "/>
</symbol>
<symbol overflow="visible" id="glyph0-2">
<path style="stroke:none;" d="M 0.890625 -6.5625 L 4.65625 -6.5625 L 4.65625 -5.8125 L 1.765625 -5.8125 L 1.765625 -3.875 L 4.375 -3.875 L 4.375 -3.140625 L 1.765625 -3.140625 L 1.765625 0 L 0.890625 0 Z M 0.890625 -6.5625 "/>
</symbol>
</g>
</defs>
<g id="surface35173">
<rect x="0" y="0" width="300" height="300" style="fill:rgb(100%,100%,100%);fill-opacity:1;stroke:none;"/>
<path style="fill:none;stroke-width:1;stroke-linecap:butt;stroke-linejoin:miter;stroke:rgb(0%,0%,0%);stroke-opacity:1;stroke-miterlimit:10;" d="M 153.414062 159.84375 L 153.414062 159.84375 M 156.191406 160.980469 L 156.414062 159.960938 M 158.96875 162.117188 L 159.410156 160.078125 M 161.746094 163.25 L 162.40625 160.195312 M 164.523438 164.386719 L 165.40625 160.308594 M 167.300781 165.519531 L 168.402344 160.425781 M 170.078125 166.65625 L 171.402344 160.542969 M 172.019531 167.449219 L 173.496094 160.621094 "/>
<path style="fill:none;stroke-width:1.2;stroke-linecap:butt;stroke-linejoin:miter;stroke:rgb(0%,0%,100%);stroke-opacity:1;stroke-miterlimit:10;" d="M 182.71875 146.933594 L 177.738281 155.484375 "/>
<path style="fill:none;stroke-width:1.2;stroke-linecap:butt;stroke-linejoin:miter;stroke:rgb(0%,0%,0%);stroke-opacity:1;stroke-miterlimit:10;" d="M 177.738281 155.484375 L 172.757812 164.035156 "/>
<path style="fill:none;stroke-width:1.2;stroke-linecap:butt;stroke-linejoin:miter;stroke:rgb(0%,0%,0%);stroke-opacity:1;stroke-miterlimit:10;" d="M 153.414062 159.84375 L 135.304688 167.824219 "/>
<path style="fill:none;stroke-width:1.2;stroke-linecap:butt;stroke-linejoin:miter;stroke:rgb(0%,0%,0%);stroke-opacity:1;stroke-miterlimit:10;" d="M 151.421875 140.15625 L 153.414062 159.84375 "/>
<path style="fill:none;stroke-width:1.2;stroke-linecap:butt;stroke-linejoin:miter;stroke:rgb(0%,0%,0%);stroke-opacity:1;stroke-miterlimit:10;" d="M 135.304688 167.824219 L 125.808594 151.4375 "/>
<path style="fill:none;stroke-width:1.2;stroke-linecap:butt;stroke-linejoin:miter;stroke:rgb(0%,0%,0%);stroke-opacity:1;stroke-miterlimit:10;" d="M 135.304688 167.824219 L 131.113281 187.167969 "/>
<path style="fill:none;stroke-width:1.2;stroke-linecap:butt;stroke-linejoin:miter;stroke:rgb(0%,0%,0%);stroke-opacity:1;stroke-miterlimit:10;" d="M 125.808594 151.4375 L 144.257812 158.605469 "/>
<path style="fill:none;stroke-width:1.2;stroke-linecap:butt;stroke-linejoin:miter;stroke:rgb(0%,0%,0%);stroke-opacity:1;stroke-miterlimit:10;" d="M 125.808594 151.4375 L 107.699219 159.417969 "/>
<path style="fill:none;stroke-width:1.2;stroke-linecap:butt;stroke-linejoin:miter;stroke:rgb(0%,0%,0%);stroke-opacity:1;stroke-miterlimit:10;" d="M 132.972656 132.988281 L 125.808594 151.4375 "/>
<path style="fill:none;stroke-width:1.2;stroke-linecap:butt;stroke-linejoin:miter;stroke:rgb(0%,0%,0%);stroke-opacity:1;stroke-miterlimit:10;" d="M 144.257812 158.605469 L 151.421875 140.15625 "/>
<path style="fill:none;stroke-width:1.2;stroke-linecap:butt;stroke-linejoin:miter;stroke:rgb(0%,0%,0%);stroke-opacity:1;stroke-miterlimit:10;" d="M 151.421875 140.15625 L 132.972656 132.988281 "/>
<path style="fill:none;stroke-width:1.2;stroke-linecap:butt;stroke-linejoin:miter;stroke:rgb(0%,0%,0%);stroke-opacity:1;stroke-miterlimit:10;" d="M 151.421875 140.15625 L 169.535156 132.175781 "/>
<path style="fill:none;stroke-width:1.2;stroke-linecap:butt;stroke-linejoin:miter;stroke:rgb(0%,0%,0%);stroke-opacity:1;stroke-miterlimit:10;" d="M 169.535156 132.175781 L 176.128906 139.554688 "/>
<path style="fill:none;stroke-width:1.2;stroke-linecap:butt;stroke-linejoin:miter;stroke:rgb(0%,0%,100%);stroke-opacity:1;stroke-miterlimit:10;" d="M 176.128906 139.554688 L 182.71875 146.933594 "/>
<path style=" stroke:none;fill-rule:nonzero;fill:rgb(0%,0%,0%);fill-opacity:1;" d="M 169.535156 132.175781 L 177.140625 113.570312 L 170.3125 112.09375 Z M 169.535156 132.175781 "/>
<path style="fill:none;stroke-width:1.2;stroke-linecap:butt;stroke-linejoin:miter;stroke:rgb(0%,0%,100%);stroke-opacity:1;stroke-miterlimit:10;" d="M 182.71875 146.933594 L 192.566406 145.9375 "/>
<path style="fill:none;stroke-width:1.2;stroke-linecap:butt;stroke-linejoin:miter;stroke:rgb(0%,0%,0%);stroke-opacity:1;stroke-miterlimit:10;" d="M 192.566406 145.9375 L 202.410156 144.945312 "/>
<path style=" stroke:none;fill-rule:nonzero;fill:rgb(100%,100%,100%);fill-opacity:1;" d="M 179.71875 141.433594 L 186.71875 141.433594 L 186.71875 152.433594 L 179.71875 152.433594 Z M 179.71875 141.433594 "/>
<g style="fill:rgb(0%,0%,100%);fill-opacity:1;">
  <use xlink:href="#glyph0-1" x="179.71875" y="150.09668"/>
</g>
<path style="fill:none;stroke-width:1.2;stroke-linecap:butt;stroke-linejoin:miter;stroke:rgb(0%,0%,0%);stroke-opacity:1;stroke-miterlimit:10;" d="M 202.410156 144.945312 L 213.980469 161 "/>
<path style="fill:none;stroke-width:1.2;stroke-linecap:butt;stroke-linejoin:miter;stroke:rgb(0%,0%,0%);stroke-opacity:1;stroke-miterlimit:10;" d="M 213.980469 161 L 205.859375 179.050781 "/>
<path style="fill:none;stroke-width:1.2;stroke-linecap:butt;stroke-linejoin:miter;stroke:rgb(0%,0%,0%);stroke-opacity:1;stroke-miterlimit:10;" d="M 217.417969 164.714844 L 210.921875 179.15625 "/>
<path style="fill:none;stroke-width:1.2;stroke-linecap:butt;stroke-linejoin:miter;stroke:rgb(0%,0%,0%);stroke-opacity:1;stroke-miterlimit:10;" d="M 233.671875 159.007812 L 213.980469 161 "/>
<path style="fill:none;stroke-width:1.2;stroke-linecap:butt;stroke-linejoin:miter;stroke:rgb(0%,0%,0%);stroke-opacity:1;stroke-miterlimit:10;" d="M 205.859375 179.050781 L 217.429688 195.105469 "/>
<path style="fill:none;stroke-width:1.2;stroke-linecap:butt;stroke-linejoin:miter;stroke:rgb(0%,0%,0%);stroke-opacity:1;stroke-miterlimit:10;" d="M 217.429688 195.105469 L 237.121094 193.113281 "/>
<path style="fill:none;stroke-width:1.2;stroke-linecap:butt;stroke-linejoin:miter;stroke:rgb(0%,0%,0%);stroke-opacity:1;stroke-miterlimit:10;" d="M 218.933594 190.273438 L 234.683594 188.679688 "/>
<path style="fill:none;stroke-width:1.2;stroke-linecap:butt;stroke-linejoin:miter;stroke:rgb(0%,0%,0%);stroke-opacity:1;stroke-miterlimit:10;" d="M 237.121094 193.113281 L 245.242188 175.066406 "/>
<path style="fill:none;stroke-width:1.2;stroke-linecap:butt;stroke-linejoin:miter;stroke:rgb(0%,0%,0%);stroke-opacity:1;stroke-miterlimit:10;" d="M 237.121094 193.113281 L 248.691406 209.171875 "/>
<path style="fill:none;stroke-width:1.2;stroke-linecap:butt;stroke-linejoin:miter;stroke:rgb(0%,0%,0%);stroke-opacity:1;stroke-miterlimit:10;" d="M 245.242188 175.066406 L 233.671875 159.007812 "/>
<path style="fill:none;stroke-width:1.2;stroke-linecap:butt;stroke-linejoin:miter;stroke:rgb(0%,0%,0%);stroke-opacity:1;stroke-miterlimit:10;" d="M 240.308594 176.183594 L 231.050781 163.335938 "/>
<path style="fill:none;stroke-width:1.2;stroke-linecap:butt;stroke-linejoin:miter;stroke:rgb(0%,0%,0%);stroke-opacity:1;stroke-miterlimit:10;" d="M 248.691406 209.171875 L 254.476562 217.199219 "/>
<path style="fill:none;stroke-width:1.2;stroke-linecap:butt;stroke-linejoin:miter;stroke:rgb(20%,80%,80%);stroke-opacity:1;stroke-miterlimit:10;" d="M 254.476562 217.199219 L 260.261719 225.230469 "/>
<path style="fill:none;stroke-width:1.2;stroke-linecap:butt;stroke-linejoin:miter;stroke:rgb(0%,0%,0%);stroke-opacity:1;stroke-miterlimit:10;" d="M 248.691406 209.171875 L 240.664062 214.957031 "/>
<path style="fill:none;stroke-width:1.2;stroke-linecap:butt;stroke-linejoin:miter;stroke:rgb(20%,80%,80%);stroke-opacity:1;stroke-miterlimit:10;" d="M 240.664062 214.957031 L 232.636719 220.742188 "/>
<path style="fill:none;stroke-width:1.2;stroke-linecap:butt;stroke-linejoin:miter;stroke:rgb(0%,0%,0%);stroke-opacity:1;stroke-miterlimit:10;" d="M 248.691406 209.171875 L 256.722656 203.386719 "/>
<path style="fill:none;stroke-width:1.2;stroke-linecap:butt;stroke-linejoin:miter;stroke:rgb(20%,80%,80%);stroke-opacity:1;stroke-miterlimit:10;" d="M 256.722656 203.386719 L 264.75 197.601562 "/>
<path style=" stroke:none;fill-rule:nonzero;fill:rgb(100%,100%,100%);fill-opacity:1;" d="M 257.261719 219.730469 L 263.261719 219.730469 L 263.261719 230.730469 L 257.261719 230.730469 Z M 257.261719 219.730469 "/>
<g style="fill:rgb(20%,80%,80%);fill-opacity:1;">
  <use xlink:href="#glyph0-2" x="257.261719" y="228.393555"/>
</g>
<path style=" stroke:none;fill-rule:nonzero;fill:rgb(100%,100%,100%);fill-opacity:1;" d="M 226.636719 215.242188 L 232.636719 215.242188 L 232.636719 226.242188 L 226.636719 226.242188 Z M 226.636719 215.242188 "/>
<g style="fill:rgb(20%,80%,80%);fill-opacity:1;">
  <use xlink:href="#glyph0-2" x="226.636719" y="223.905273"/>
</g>
<path style=" stroke:none;fill-rule:nonzero;fill:rgb(100%,100%,100%);fill-opacity:1;" d="M 261.75 192.101562 L 267.75 192.101562 L 267.75 203.101562 L 261.75 203.101562 Z M 261.75 192.101562 "/>
<g style="fill:rgb(20%,80%,80%);fill-opacity:1;">
  <use xlink:href="#glyph0-2" x="261.75" y="200.764648"/>
</g>
<path style="fill:none;stroke-width:1.2;stroke-linecap:butt;stroke-linejoin:miter;stroke:rgb(0%,0%,0%);stroke-opacity:1;stroke-miterlimit:10;" d="M 173.726562 112.832031 L 192.574219 106.789062 "/>
<path style="fill:none;stroke-width:1.2;stroke-linecap:butt;stroke-linejoin:miter;stroke:rgb(0%,0%,0%);stroke-opacity:1;stroke-miterlimit:10;" d="M 174.1875 107.792969 L 189.265625 102.960938 "/>
<path style="fill:none;stroke-width:1.2;stroke-linecap:butt;stroke-linejoin:miter;stroke:rgb(0%,0%,0%);stroke-opacity:1;stroke-miterlimit:10;" d="M 159.070312 99.53125 L 173.726562 112.832031 "/>
<path style="fill:none;stroke-width:1.2;stroke-linecap:butt;stroke-linejoin:miter;stroke:rgb(0%,0%,0%);stroke-opacity:1;stroke-miterlimit:10;" d="M 192.574219 106.789062 L 196.761719 87.449219 "/>
<path style="fill:none;stroke-width:1.2;stroke-linecap:butt;stroke-linejoin:miter;stroke:rgb(0%,0%,0%);stroke-opacity:1;stroke-miterlimit:10;" d="M 196.761719 87.449219 L 182.105469 74.148438 "/>
<path style="fill:none;stroke-width:1.2;stroke-linecap:butt;stroke-linejoin:miter;stroke:rgb(0%,0%,0%);stroke-opacity:1;stroke-miterlimit:10;" d="M 192.167969 89.566406 L 180.441406 78.925781 "/>
<path style="fill:none;stroke-width:1.2;stroke-linecap:butt;stroke-linejoin:miter;stroke:rgb(0%,0%,0%);stroke-opacity:1;stroke-miterlimit:10;" d="M 182.105469 74.148438 L 163.261719 80.1875 "/>
<path style="fill:none;stroke-width:1.2;stroke-linecap:butt;stroke-linejoin:miter;stroke:rgb(0%,0%,0%);stroke-opacity:1;stroke-miterlimit:10;" d="M 163.261719 80.1875 L 159.070312 99.53125 "/>
<path style="fill:none;stroke-width:1.2;stroke-linecap:butt;stroke-linejoin:miter;stroke:rgb(0%,0%,0%);stroke-opacity:1;stroke-miterlimit:10;" d="M 167.394531 83.109375 L 164.039062 98.582031 "/>
<path style="fill:none;stroke-width:1.2;stroke-linecap:butt;stroke-linejoin:miter;stroke:rgb(0%,0%,0%);stroke-opacity:1;stroke-miterlimit:10;" d="M 107.699219 159.417969 L 91.730469 147.722656 "/>
<path style="fill:none;stroke-width:1.2;stroke-linecap:butt;stroke-linejoin:miter;stroke:rgb(0%,0%,0%);stroke-opacity:1;stroke-miterlimit:10;" d="M 103.347656 162.003906 L 90.574219 152.648438 "/>
<path style="fill:none;stroke-width:1.2;stroke-linecap:butt;stroke-linejoin:miter;stroke:rgb(0%,0%,0%);stroke-opacity:1;stroke-miterlimit:10;" d="M 105.550781 179.09375 L 107.699219 159.417969 "/>
<path style="fill:none;stroke-width:1.2;stroke-linecap:butt;stroke-linejoin:miter;stroke:rgb(0%,0%,0%);stroke-opacity:1;stroke-miterlimit:10;" d="M 91.730469 147.722656 L 73.621094 155.699219 "/>
<path style="fill:none;stroke-width:1.2;stroke-linecap:butt;stroke-linejoin:miter;stroke:rgb(0%,0%,0%);stroke-opacity:1;stroke-miterlimit:10;" d="M 73.621094 155.699219 L 71.472656 175.375 "/>
<path style="fill:none;stroke-width:1.2;stroke-linecap:butt;stroke-linejoin:miter;stroke:rgb(0%,0%,0%);stroke-opacity:1;stroke-miterlimit:10;" d="M 78.035156 158.171875 L 76.316406 173.914062 "/>
<path style="fill:none;stroke-width:1.2;stroke-linecap:butt;stroke-linejoin:miter;stroke:rgb(0%,0%,0%);stroke-opacity:1;stroke-miterlimit:10;" d="M 71.472656 175.375 L 87.441406 187.070312 "/>
<path style="fill:none;stroke-width:1.2;stroke-linecap:butt;stroke-linejoin:miter;stroke:rgb(0%,0%,0%);stroke-opacity:1;stroke-miterlimit:10;" d="M 71.472656 175.375 L 53.363281 183.355469 "/>
<path style="fill:none;stroke-width:1.2;stroke-linecap:butt;stroke-linejoin:miter;stroke:rgb(0%,0%,0%);stroke-opacity:1;stroke-miterlimit:10;" d="M 87.441406 187.070312 L 105.550781 179.09375 "/>
<path style="fill:none;stroke-width:1.2;stroke-linecap:butt;stroke-linejoin:miter;stroke:rgb(0%,0%,0%);stroke-opacity:1;stroke-miterlimit:10;" d="M 87.375 182.011719 L 101.863281 175.628906 "/>
<path style="fill:none;stroke-width:1.2;stroke-linecap:butt;stroke-linejoin:miter;stroke:rgb(0%,0%,0%);stroke-opacity:1;stroke-miterlimit:10;" d="M 53.363281 183.355469 L 44.304688 187.34375 "/>
<path style="fill:none;stroke-width:1.2;stroke-linecap:butt;stroke-linejoin:miter;stroke:rgb(0%,0%,100%);stroke-opacity:1;stroke-miterlimit:10;" d="M 44.304688 187.34375 L 35.25 191.332031 "/>
<path style="fill:none;stroke-width:1.2;stroke-linecap:butt;stroke-linejoin:miter;stroke:rgb(0%,0%,0%);stroke-opacity:1;stroke-miterlimit:10;" d="M 49.671875 179.890625 L 42.429688 183.082031 "/>
<path style="fill:none;stroke-width:1.2;stroke-linecap:butt;stroke-linejoin:miter;stroke:rgb(0%,0%,100%);stroke-opacity:1;stroke-miterlimit:10;" d="M 42.429688 183.082031 L 35.183594 186.273438 "/>
<path style="fill:none;stroke-width:1.2;stroke-linecap:butt;stroke-linejoin:miter;stroke:rgb(0%,0%,0%);stroke-opacity:1;stroke-miterlimit:10;" d="M 53.429688 188.414062 L 46.183594 191.605469 "/>
<path style="fill:none;stroke-width:1.2;stroke-linecap:butt;stroke-linejoin:miter;stroke:rgb(0%,0%,100%);stroke-opacity:1;stroke-miterlimit:10;" d="M 46.183594 191.605469 L 38.9375 194.796875 "/>
<path style=" stroke:none;fill-rule:nonzero;fill:rgb(100%,100%,100%);fill-opacity:1;" d="M 28.25 185.832031 L 35.25 185.832031 L 35.25 196.832031 L 28.25 196.832031 Z M 28.25 185.832031 "/>
<g style="fill:rgb(0%,0%,100%);fill-opacity:1;">
  <use xlink:href="#glyph0-1" x="28.25" y="194.495117"/>
</g>
<path style="fill:none;stroke-width:1.2;stroke-linecap:butt;stroke-linejoin:miter;stroke:rgb(0%,0%,0%);stroke-opacity:1;stroke-miterlimit:10;" d="M 131.113281 187.167969 L 112.265625 193.210938 "/>
<path style="fill:none;stroke-width:1.2;stroke-linecap:butt;stroke-linejoin:miter;stroke:rgb(0%,0%,0%);stroke-opacity:1;stroke-miterlimit:10;" d="M 130.648438 192.207031 L 115.570312 197.039062 "/>
<path style="fill:none;stroke-width:1.2;stroke-linecap:butt;stroke-linejoin:miter;stroke:rgb(0%,0%,0%);stroke-opacity:1;stroke-miterlimit:10;" d="M 145.769531 200.46875 L 131.113281 187.167969 "/>
<path style="fill:none;stroke-width:1.2;stroke-linecap:butt;stroke-linejoin:miter;stroke:rgb(0%,0%,0%);stroke-opacity:1;stroke-miterlimit:10;" d="M 112.265625 193.210938 L 108.074219 212.550781 "/>
<path style="fill:none;stroke-width:1.2;stroke-linecap:butt;stroke-linejoin:miter;stroke:rgb(0%,0%,0%);stroke-opacity:1;stroke-miterlimit:10;" d="M 108.074219 212.550781 L 122.730469 225.851562 "/>
<path style="fill:none;stroke-width:1.2;stroke-linecap:butt;stroke-linejoin:miter;stroke:rgb(0%,0%,0%);stroke-opacity:1;stroke-miterlimit:10;" d="M 112.671875 210.433594 L 124.394531 221.074219 "/>
<path style="fill:none;stroke-width:1.2;stroke-linecap:butt;stroke-linejoin:miter;stroke:rgb(0%,0%,0%);stroke-opacity:1;stroke-miterlimit:10;" d="M 122.730469 225.851562 L 141.578125 219.8125 "/>
<path style="fill:none;stroke-width:1.2;stroke-linecap:butt;stroke-linejoin:miter;stroke:rgb(0%,0%,0%);stroke-opacity:1;stroke-miterlimit:10;" d="M 141.578125 219.8125 L 145.769531 200.46875 "/>
<path style="fill:none;stroke-width:1.2;stroke-linecap:butt;stroke-linejoin:miter;stroke:rgb(0%,0%,0%);stroke-opacity:1;stroke-miterlimit:10;" d="M 137.445312 216.890625 L 140.796875 201.417969 "/>
</g>
</svg>

<svg xmlns="http://www.w3.org/2000/svg" xmlns:xlink="http://www.w3.org/1999/xlink" width="300pt" height="300pt" viewBox="0 0 300 300"><defs><symbol overflow="visible"><path d="M.453 1.594v-7.938h4.5v7.938zm.5-.5h3.5v-6.938h-3.5zm0 0"/></symbol><symbol overflow="visible" id="a"><path d="M.89-6.563H2.08l2.906 5.485v-5.484h.86V0H4.656L1.75-5.484V0H.89zm0 0"/></symbol><symbol overflow="visible" id="b"><path d="M.89-6.563h3.766v.75h-2.89v1.938h2.61v.734h-2.61V0H.89zm0 0"/></symbol></defs><g><path fill="#fff" d="M0 0h300v300H0z"/><path d="M153.414 159.844m2.777 1.136l.224-1.02m2.555 2.157l.44-2.04m2.336 3.173l.66-3.055m2.117 4.192l.883-4.078m1.895 5.21l1.102-5.094m1.676 6.23l1.324-6.113m.618 6.906l1.476-6.83" stroke="#000" stroke-miterlimit="10" fill="none"/><path d="M182.72 146.934l-4.982 8.55" stroke-width="1.2" stroke="#00f" stroke-miterlimit="10" fill="none"/><path d="M177.738 155.484l-4.98 8.55M153.414 159.844l-18.11 7.98M151.422 140.156l1.992 19.688M135.305 167.824l-9.496-16.387M135.305 167.824l-4.192 19.344M125.81 151.438l18.448 7.167M125.81 151.438l-18.11 7.98M132.973 132.988l-7.164 18.45M144.258 158.605l7.164-18.45M151.422 140.156l-18.45-7.168M151.422 140.156l18.113-7.98M169.535 132.176l6.594 7.38" stroke-width="1.2" stroke="#000" stroke-miterlimit="10" fill="none"/><path d="M176.13 139.555l6.59 7.38" stroke-width="1.2" stroke="#00f" stroke-miterlimit="10" fill="none"/><path d="M169.535 132.176l7.606-18.606-6.827-1.476zm0 0"/><path d="M182.72 146.934l9.846-.996" stroke-width="1.2" stroke="#00f" stroke-miterlimit="10" fill="none"/><path d="M192.566 145.938l9.844-.993" stroke-width="1.2" stroke="#000" stroke-miterlimit="10" fill="none"/><path d="M179.72 141.434h7v11h-7zm0 0" fill="#fff"/><use xlink:href="#a" x="179.719" y="150.097" fill="#00f"/><path d="M202.41 144.945L213.98 161M213.98 161l-8.12 18.05M217.418 164.715l-6.496 14.44M233.672 159.008L213.98 161M205.86 179.05l11.57 16.055M217.43 195.105l19.69-1.992M218.934 190.273l15.75-1.593M237.12 193.113l8.122-18.047M237.12 193.113l11.57 16.06M245.242 175.066l-11.57-16.058M240.31 176.184l-9.26-12.848M248.69 209.172l5.787 8.027" stroke-width="1.2" stroke="#000" stroke-miterlimit="10" fill="none"/><path d="M254.477 217.2l5.785 8.03" stroke-width="1.2" stroke="#3cc" stroke-miterlimit="10" fill="none"/><path d="M248.69 209.172l-8.026 5.785" stroke-width="1.2" stroke="#000" stroke-miterlimit="10" fill="none"/><path d="M240.664 214.957l-8.027 5.785" stroke-width="1.2" stroke="#3cc" stroke-miterlimit="10" fill="none"/><path d="M248.69 209.172l8.033-5.785" stroke-width="1.2" stroke="#000" stroke-miterlimit="10" fill="none"/><path d="M256.723 203.387l8.027-5.785" stroke-width="1.2" stroke="#3cc" stroke-miterlimit="10" fill="none"/><path d="M257.262 219.73h6v11h-6zm0 0" fill="#fff"/><use xlink:href="#b" x="257.262" y="228.394" fill="#3cc"/><path d="M226.637 215.242h6v11h-6zm0 0" fill="#fff"/><use xlink:href="#b" x="226.637" y="223.905" fill="#3cc"/><path d="M261.75 192.102h6v11h-6zm0 0" fill="#fff"/><use xlink:href="#b" x="261.75" y="200.765" fill="#3cc"/><path d="M173.727 112.832l18.847-6.043M174.188 107.793l15.078-4.832M159.07 99.53l14.657 13.302M192.574 106.79l4.188-19.34M196.762 87.45l-14.657-13.302M192.168 89.566l-11.727-10.64M182.105 74.148l-18.843 6.04M163.262 80.188L159.07 99.53M167.395 83.11L164.04 98.58M107.7 159.418l-15.97-11.695M103.348 162.004l-12.774-9.356M105.55 179.094l2.15-19.676M91.73 147.723L73.62 155.7M73.62 155.7l-2.147 19.675M78.035 158.172l-1.72 15.742M71.473 175.375L87.44 187.07M71.473 175.375l-18.11 7.98M87.44 187.07l18.11-7.976M87.375 182.012l14.488-6.383M53.363 183.355l-9.058 3.99" stroke-width="1.2" stroke="#000" stroke-miterlimit="10" fill="none"/><path d="M44.305 187.344l-9.055 3.988" stroke-width="1.2" stroke="#00f" stroke-miterlimit="10" fill="none"/><path d="M49.672 179.89l-7.242 3.192" stroke-width="1.2" stroke="#000" stroke-miterlimit="10" fill="none"/><path d="M42.43 183.082l-7.246 3.19" stroke-width="1.2" stroke="#00f" stroke-miterlimit="10" fill="none"/><path d="M53.43 188.414l-7.246 3.19" stroke-width="1.2" stroke="#000" stroke-miterlimit="10" fill="none"/><path d="M46.184 191.605l-7.246 3.192" stroke-width="1.2" stroke="#00f" stroke-miterlimit="10" fill="none"/><path d="M28.25 185.832h7v11h-7zm0 0" fill="#fff"/><use xlink:href="#a" x="28.25" y="194.495" fill="#00f"/><path d="M131.113 187.168l-18.847 6.043M130.648 192.207l-15.078 4.832M145.77 200.47l-14.657-13.302M112.266 193.21l-4.192 19.34M108.074 212.55l14.656 13.302M112.672 210.434l11.723 10.64M122.73 225.852l18.848-6.04M141.578 219.813l4.192-19.344M137.445 216.89l3.352-15.472" stroke-width="1.2" stroke="#000" stroke-miterlimit="10" fill="none"/></g></svg>
